X:1
T:Condon's Frolics (1st Setting)
M:6/8
L:1/8
Q:80
C:Arranged by T. Tully
S:Jig
K:HP
e | \
fBc{g}d2e | \
{g}fed{g}cB{G}A | \
fBc{g}d2e |
{gfg}f2e{g}fa{g}afBc{g}d2e | \
{g}fedc{e}c{G}c | \
{g}A{d}ceaec |
B{e}B{G}B{g}B2 :| \
e | \
{g}fa{g}aef{e}f | \
{g}ded{g}cB{G}A |
{g}dcd{g}ede | \
{gfg}f2e{g}fg{f}g{g}fa{g}aef{e}f | \
{g}dedc{e}c{G}c |
{g}A{d}ceaec | \
B{e}B{G}B{g}B2 :|
